!!!ONB: MCCC : IFS0592_03 : Extracted Monophonic Melody
!!!COM: Schubert, Franz
!!!OPR: Piano Sonata in C minor
!!!OMV: 3
!!!SCT: D.958
!!!ODT: 1828///
**kern
*staff1
=1
*clefG2
*k[b-e-a-]
*E-:
*M3/4
4ee-
4ff
4gg
=2
2gg
4aa-
=3
2gg
4ee-
=4
4gg
4aa
4bb
=5
4ccc
4ddd-
4eee-
=6
2eee-
4fff
=7
2eee-
4bb-
=8
4ccc
4eee
4fff
=9
4b-
4dd
4ee-
=10
2g
4a-
=11
2f
4e-
=12
4e-
4r
4r
=13
4ee-
4ff
4gg
=14
2gg
4aa-
=15
2gg
4ee-
=16
4gg
4aa
4bb
=17
4ccc
4ddd-
4eee-
=18
2eee-
4fff
=19
2eee-
4bb-
=20
4ccc
4eee
4fff
=21
4b-
4dd
4ee-
=22
2g
4a-
=23
2f
4e-
=24
4e-
8G
8B-
8e-
8g
=25
2b-
4g
=26
8ggg
8eee-
8ggg
8eee-
8bb-
8gg
=27
2bb-
4bb-
=28
2b-
4g
=29
8ggg
8eee-
8ggg
8eee-
8bb-
8gg
=30
2gg
4gg
=31
2g
4e-
=32
8gg
8ee-
8gg
8ee-
8cc
8g
=33
8a-
8e-
8a-
8e-
8c
8A-
=34
4A-
4A-
4A-
=35
4A-
4A-
4A-
=36
2.d-
=37
2c
4cc
=38
2.cc
=39
2.b
=40
8ee-
8dd
8ee-
8ff
8gg
8ff
=41
8ee-
8dd
8ee-
8ff
8ee-
8dd
=42
8cc
8b
8cc
8dd
8ee-
8ff
=43
8gg
8aa
8ccc
8bb
8aa
8gg
=44
2.r
=45
8aa-
8gg
8aa-
8bb-
8ccc
8ddd-
=46
8ccc
8ddd-
8eee-
8fff
8ggg
8aaa-
=47
8bbb-
8ggg
8eee-
8ccc
8bb-
8gg
=48
8aa-
8cc
8b-
8gg
8ff
8a-
=49
2.r
=50
8g
8G
8B
8f
8e-
8c
=51
8G
8e-
8c
8G
8A-
8f
=52
8D
8B
8G
8D
8E-
8c
=53
4c
8G
8B-
8e-
8g
=54
2b-
4g
=55
8ggg
8eee-
8ggg
8eee-
8bb-
8gg
=56
2bb-
4bb-
=57
2b-
4g
=58
8ggg
8eee-
8ggg
8eee-
8bb-
8gg
=59
2gg
4gg
=60
2g
4e-
=61
8gg
8ee-
8gg
8ee-
8cc
8g
=62
8a-
8e-
8a-
8e-
8c
8A-
=63
4A-
4A-
4A-
=64
4A-
4A-
4A-
=65
2.d-
=66
2c
4cc
=67
2.cc
=68
2.b
=69
8ee-
8dd
8ee-
8ff
8gg
8ff
=70
8ee-
8dd
8ee-
8ff
8ee-
8dd
=71
8cc
8b
8cc
8dd
8ee-
8ff
=72
8gg
8aa
8ccc
8bb
8aa
8gg
=73
2.r
=74
8aa-
8gg
8aa-
8bb-
8ccc
8ddd-
=75
8ccc
8ddd-
8eee-
8fff
8ggg
8aaa-
=76
8bbb-
8ggg
8eee-
8ccc
8bb-
8gg
=77
8aa-
8cc
8b-
8gg
8ff
8a-
=78
2.r
=79
8g
8G
8B
8f
8e-
8c
=80
8G
8e-
8c
8G
8A-
8f
=81
8D
8B
8G
8D
8E-
8c
=82
4c
4r
4r
=83
2.r
=84
4r
4r
4c
=85
4c
8e-
8d-
4c
=86
2c
4c
=87
8c
8d-
8e-
8d-
8c
8B-
=88
2B-
4B
=89
2cc
4g
=90
2a-
4f
=91
2dd-
4g
=92
2a-
4c
=93
4c
8e-
8d-
4c
=94
2c
4c
=95
8c
8d-
8e-
8d-
8c
8B-
=96
2B-
4B
=97
2cc
4g
=98
2a-
4f
=99
2dd-
4g
=100
2a-
4r
=101
2b-
4b-
=102
4b-
4ee-
4b-
=103
8b-
8b
8b-
8a-
8g
8a-
=104
2.b-
=105
2B-
4B-
=106
4B-
4e-
4B-
=107
8B-
8B
8B-
8A-
8G-
8A-
=108
2.B-
=109
2.b-
=110
2.b
=111
2.dd-
=112
2.b-
=113
2a-
4f
=114
2g-
4g
=115
2g
4ee-
=116
2ee-
4dd
=117
2dd
4dd-
=118
2dd-
4cc
=119
4cc
8ee-
8dd-
4cc
=120
2cc
4cc
=121
8cc
8dd-
8ee-
8dd-
8cc
8b-
=122
2b-
4b
=123
2cc
4g
=124
2a-
4f
=125
2dd-
4g
=126
2a-
4r
=127
2b-
4b-
=128
4b-
4ee-
4b-
=129
8b-
8b
8b-
8a-
8g
8a-
=130
2.b-
=131
2B-
4B-
=132
4B-
4e-
4B-
=133
8B-
8B
8B-
8A-
8G-
8A-
=134
2.B-
=135
2.b-
=136
2.b
=137
2.dd-
=138
2.b-
=139
2a-
4f
=140
2g-
4g
=141
2g
4ee-
=142
2ee-
4dd
=143
2dd
4dd-
=144
2dd-
4cc
=145
4cc
8ee-
8dd-
4cc
=146
2cc
4cc
=147
8cc
8dd-
8ee-
8dd-
8cc
8b-
=148
2b-
4b
=149
2cc
4g
=150
2a-
4f
=151
2dd-
4g
=152
2a-
4r
=153
4ee-
4ff
4gg
=154
2gg
4aa-
=155
2gg
4ee-
=156
4gg
4aa
4bb
=157
4ccc
4ddd-
4eee-
=158
2eee-
4fff
=159
2eee-
4bb-
=160
4ccc
4eee
4fff
=161
4b-
4dd
4ee-
=162
2g
4a-
=163
2f
4e-
=164
4e-
8G
8B-
8e-
8g
=165
2b-
4g
=166
8ggg
8eee-
8ggg
8eee-
8bb-
8gg
=167
2bb-
4bb-
=168
2b-
4g
=169
8ggg
8eee-
8ggg
8eee-
8bb-
8gg
=170
2gg
4gg
=171
2g
4e-
=172
8gg
8ee-
8gg
8ee-
8cc
8g
=173
8a-
8e-
8a-
8e-
8c
8A-
=174
4A-
4A-
4A-
=175
4A-
4A-
4A-
=176
2.d-
=177
2c
4cc
=178
2.cc
=179
2.b
=180
8ee-
8dd
8ee-
8ff
8gg
8ff
=181
8ee-
8dd
8ee-
8ff
8ee-
8dd
=182
8cc
8b
8cc
8dd
8ee-
8ff
=183
8gg
8aa
8ccc
8bb
8aa
8gg
=184
2.r
=185
8aa-
8gg
8aa-
8bb-
8ccc
8ddd-
=186
8ccc
8ddd-
8eee-
8fff
8ggg
8aaa-
=187
8bbb-
8ggg
8eee-
8ccc
8bb-
8gg
=188
8aa-
8cc
8b-
8gg
8ff
8a-
=189
2.r
=190
8g
8G
8B
8f
8e-
8c
=191
8G
8e-
8c
8G
8A-
8f
=192
8D
8B
8G
8D
8E-
8c
=193
4c
4r
4r
==
*-
